src/assets/filled/Notification.svg

<svg width="24" height="24" viewBox="0 0 24 24"  xmlns="http://www.w3.org/2000/svg">
<path d="M19.3399 14.49L18.3399 12.83C18.1299 12.46 17.9399 11.76 17.9399 11.35V8.82C17.9399 6.47 16.5599 4.44 14.5699 3.49C14.0499 2.57 13.0899 2 11.9899 2C10.8999 2 9.91994 2.59 9.39994 3.52C7.44994 4.49 6.09994 6.5 6.09994 8.82V11.35C6.09994 11.76 5.90994 12.46 5.69994 12.82L4.68994 14.49C4.28994 15.16 4.19994 15.9 4.44994 16.58C4.68994 17.25 5.25994 17.77 5.99994 18.02C7.93994 18.68 9.97994 19 12.0199 19C14.0599 19 16.0999 18.68 18.0399 18.03C18.7399 17.8 19.2799 17.27 19.5399 16.58C19.7999 15.89 19.7299 15.13 19.3399 14.49Z" />
<path d="M14.8299 20.01C14.4099 21.17 13.2999 22 11.9999 22C11.2099 22 10.4299 21.68 9.87993 21.11C9.55993 20.81 9.31993 20.41 9.17993 20C9.30993 20.02 9.43993 20.03 9.57993 20.05C9.80993 20.08 10.0499 20.11 10.2899 20.13C10.8599 20.18 11.4399 20.21 12.0199 20.21C12.5899 20.21 13.1599 20.18 13.7199 20.13C13.9299 20.11 14.1399 20.1 14.3399 20.07C14.4999 20.05 14.6599 20.03 14.8299 20.01Z" />
</svg>

<?xml version="1.0" encoding="UTF-8"?>
<svg width="24" height="24" viewBox="0 0 24 24" xmlns="http://www.w3.org/2000/svg">
 <path d="m19.34 14.49-1-1.66c-0.21-0.37-0.4-1.07-0.4-1.48v-2.53c0-2.35-1.38-4.38-3.37-5.33-0.52-0.92-1.48-1.49-2.58-1.49-1.09 0-2.07 0.59-2.59 1.52-1.95 0.97-3.3 2.98-3.3 5.3v2.53c0 0.41-0.19 1.11-0.4 1.47l-1.01 1.67c-0.4 0.67-0.49 1.41-0.24 2.09 0.24 0.67 0.81 1.19 1.55 1.44 1.94 0.66 3.98 0.98 6.02 0.98 2.04 0 4.08-0.32 6.02-0.97 0.7-0.23 1.24-0.76 1.5-1.45s0.19-1.45-0.2-2.09z"/>
 <path d="m14.83 20.01c-0.42 1.16-1.53 1.99-2.83 1.99-0.79 0-1.57-0.32-2.12-0.89-0.32-0.3-0.56-0.7-0.7-1.11 0.13 0.02 0.26 0.03 0.4 0.05 0.23 0.03 0.46997 0.06 0.70997 0.08 0.57 0.05 1.15 0.08 1.73 0.08 0.57 0 1.14-0.03 1.7-0.08 0.21-0.02 0.42-0.03 0.62-0.06 0.16-0.02 0.32-0.04 0.49-0.06z"/>
</svg>
